X: 200
U:~=!turn!
M:C
L:1/8
K:Bb
d | {/g}f2 dB {/g}f2 dB | A/B/c c>B AFF_A | GEEG FDDd | edcB AcF=e | {/g}f2 dB {/g}f2 dB |
edcB AcFe | dfbf dfBd | Acfc AcF_A | (G/A/B) (A/B/c) (B/c/d) (c/d/e ) | (d/e/f) (e/f/g) (f/g/a) (b/g/)=e :|


